X: 968
T: Rub the bag
C: anon.
O: Ireland
B: Francis O'Neill: "The Dance Music of Ireland" (1907) no. 968
R: Long dance, set dance
Z: Transcribed by Frank Nordberg - http://www.musicaviva.com
F: http://www.musicaviva.com/abc/tunes/ireland/oneill-1001/oneill-1001-096
8.abc
m: Mn = (3n/o/n/
m: ~n3 = n (3n/o/n/ (3m/n/-n/
M: 6/8
L: 1/8
K: D
d2d fed|cBA cec|BcB fdB|dcB fdB|d2d fed|cBA cec|ABA ecA|
[1(A/B/c)A ecA:|[2(A/B/c)A d2 z|:ded def|efe efg|fgf f2^g|aba a2g|fgf fga
|gfe efe|
~d3 fed|cBA cec|BcB fdB|(B/c/d)B fdB|Mdcd fed|cBA cec|ABA ecA|A/B/cA d2|]


